img/vk-g.svg

<svg width="18" height="11" viewBox="0 0 18 11" fill="none" xmlns="http://www.w3.org/2000/svg">
<path d="M8.78806 10.0303H9.86427C9.86427 10.0303 10.1831 9.9911 10.3625 9.81488C10.5219 9.65825 10.502 9.34498 10.502 9.34498C10.502 9.34498 10.4821 7.93529 11.1597 7.71992C11.8174 7.52413 12.6743 9.09046 13.5712 9.69741C14.2488 10.1477 14.767 10.0498 14.767 10.0498L17.1785 10.0107C17.1785 10.0107 18.434 9.93236 17.8361 8.97298C17.7963 8.89466 17.4973 8.24855 16.0425 6.93675C14.5278 5.56621 14.747 5.78158 16.5606 3.41251C17.6568 1.96365 18.1152 1.08259 17.9756 0.710588C17.8361 0.358164 17.039 0.43648 17.039 0.43648L14.3086 0.475638C14.3086 0.475638 14.1093 0.45606 13.9499 0.534376C13.8103 0.612693 13.7107 0.828063 13.7107 0.828063C13.7107 0.828063 13.2922 1.94407 12.7142 2.90345C11.5184 4.9201 11.0202 5.018 10.8209 4.90052C10.3625 4.60683 10.4821 3.72577 10.4821 3.09924C10.4821 1.16091 10.781 0.338585 9.90412 0.123214C9.60518 0.0448978 9.38595 0.00573941 8.64855 0.00573941C7.69193 -0.0138397 6.87481 0.00573957 6.3965 0.240689C6.09755 0.397322 5.8584 0.710588 5.9979 0.730167C6.17727 0.749747 6.57587 0.828063 6.79509 1.12175C7.07411 1.49375 7.05418 2.31608 7.05418 2.31608C7.05418 2.31608 7.21362 4.60683 6.67551 4.90052C6.31678 5.09631 5.81854 4.70473 4.74233 2.86429C4.1843 1.92449 3.78571 0.90638 3.78571 0.90638C3.78571 0.90638 3.70599 0.710588 3.56648 0.612693C3.38712 0.495218 3.14796 0.456059 3.14796 0.456059L0.577029 0.475638C0.577029 0.475638 0.198363 0.495218 0.0588553 0.651851C-0.0607229 0.808484 0.0389244 1.10217 0.0389244 1.10217C0.0389244 1.10217 2.05182 5.72284 4.32381 8.05276C6.41643 10.1673 8.78806 10.0303 8.78806 10.0303Z" fill="black" fill-opacity="0.5"/>
</svg>

<svg width="18" height="11" viewBox="0 0 18 11" fill="none" xmlns="http://www.w3.org/2000/svg"><path d="M8.788 10.03h1.076s.32-.039.498-.215c.16-.157.14-.47.14-.47s-.02-1.41.658-1.625c.657-.196 1.514 1.37 2.411 1.977.678.45 1.196.353 1.196.353l2.412-.04s1.255-.078.657-1.037c-.04-.078-.339-.724-1.793-2.036-1.515-1.37-1.296-1.155.518-3.524 1.096-1.45 1.554-2.33 1.415-2.702-.14-.353-.937-.275-.937-.275l-2.73.04s-.2-.02-.36.058c-.139.079-.238.294-.238.294s-.419 1.116-.997 2.075c-1.196 2.017-1.694 2.115-1.893 1.998-.458-.294-.339-1.175-.339-1.802 0-1.938.299-2.76-.578-2.976C9.605.045 9.386.006 8.65.006c-.957-.02-1.774 0-2.252.235-.3.156-.539.47-.4.49.18.019.579.097.798.39.28.373.26 1.195.26 1.195s.159 2.29-.38 2.585c-.358.195-.856-.196-1.933-2.037-.558-.94-.956-1.958-.956-1.958s-.08-.195-.22-.293a1.249 1.249 0 00-.418-.157L.577.476S.198.496.059.652c-.12.156-.02.45-.02.45s2.013 4.62 4.285 6.95c2.092 2.115 4.464 1.978 4.464 1.978z" fill="#000" fill-opacity=".5"/></svg>
